!!!COA:	Josquin des Prez
!!!CDT:	~1450-1521/08/27
!!!OPR:	Missa D'ung aultre amer
!!!ONM:	2
!!!OTL:	Gloria
!!!AGN:	Mass; Gloria; Missa Brevis
!!!SCT:	NJE 7.3
!!!SCA:	New Josquin Edition 7.3
!!!voices:	4
!!!voices-OPR:	4
**kern	**kern	**kern	**kern
*staff4	*staff3	*staff2	*staff1
*Ivox	*Ivox	*Ivox	*Ivox
*I"Bassus	*I"Tenor	*I"Altus	*I"Superius
*I'B	*I'T	*I'A	*I'S
*clefF4	*clefGv2	*clefGv2	*clefG2
*>A	*>A	*>A	*>A
*k[b-]	*k[b-]	*k[b-]	*k[b-]
*M2/1	*M2/1	*M2/1	*M2/1
*met(C|)	*met(C|)	*met(C|)	*met(C|)
=1-	=1-	=1-	=1-
!!section: Et in terra pax
!!!OMD: Et in terra pax
2GG/	0G	2.d\	2g/
2GG/	.	.	2g/
.	.	4d\	.
2GG/	.	2d\	2g/
2GG/	.	2d\	2g/
=2	=2	=2	=2
2D\	1F	2d\	2.a/
2D\	.	2D/	.
.	.	.	4b-\
2C/	1G	2E/	2cc\
2C/	.	2E/	2cc\
=3	=3	=3	=3
2BB-/	0B-	2F/	2dd\
2BB-/	.	2F/	2dd\
2BB-/	.	2F/	2dd\
2BB-/	.	2G/	2dd\
=4	=4	=4	=4
1F	0c	2.A/	2.cc\
.	.	4F/	4b-\
1E	.	1G	1g/
.	.	.	.
=5	=5	=5	=5
2D\	1.d	2A/	1f
2D\	.	2A/	.
2D\	.	2A/	2r
2D\	2c\	2A/	2f/
=6	=6	=6	=6
1GG	1B-	1G	2g/
.	.	.	2d/
1r	1A	1r	2e/
.	.	.	2f/
=7	=7	=7	=7
2GG/	1.G	0r	2g/
2GG/	.	.	1b-
2BB-/	.	.	.
2C/	4F/	.	4a/
.	4E/	.	4g/
=8	=8	=8	=8
1D	0D	2d\	[0f
.	.	2d\	.
[1BB-	.	2d\	.
.	.	[2f\	.
=9	=9	=9	=9
1BB-]	1B-	2f\]	0f]
.	.	2d\	.
1F	1A	1c	.
=10	=10	=10	=10
2BB-/	1B-	0B-	2r
2GG/	.	.	2d/
2.BB-/	1G	.	2d/
.	.	.	2e-/
4C/	.	.	.
=11	=11	=11	=11
0D	2F/	0r	2.d/
.	1F	.	.
.	.	.	4c/
.	.	.	2B-/
.	4E/	.	2A/
.	4F/	.	.
=12	=12	=12	=12
0r	1G	1d	2G/
.	.	.	1g
.	[1C	1c	.
.	.	.	2g/
=13	=13	=13	=13
0r	1C]	1c	2g/
.	.	.	2g/
.	1G	1B-	2g/
.	.	.	2g/
=14	=14	=14	=14
1r	2F/	2A/	2a/
.	1G	2G/	1b-
1GG	.	1d	.
.	4F/	.	4a/
.	4E/	.	4g/
=15	=15	=15	=15
2D\	2F/	2A/	1f
2BB-/	2D/	2B-\	.
1AA	1C	1c	1r
=16	=16	=16	=16
2GG/	0G	0B-	2.d/
2GG/	.	.	.
.	.	.	4d/
2GG/	.	.	2d/
2GG/	.	.	2d/
=17	=17	=17	=17
0D	1D	0r	2d/
.	.	.	2d/
.	1F	.	2d/
.	.	.	2d/
=18	=18	=18	=18
0AA	0E	0r	2c/
.	.	.	2c/
.	.	.	2c/
.	.	.	2c/
=19	=19	=19	=19
0F	0D	1r	2.d/
.	.	.	4c/
.	.	1d	2B-/
.	.	.	2A/
=20	=20	=20	=20
0G	0B-	2d\	1G
.	.	2d\	.
.	.	2d\	1r
.	.	2e\	.
=21	=21	=21	=21
0F	1c	2.f\	0r
.	.	4f\	.
.	1c	2f\	.
.	.	2f\	.
=22	=22	=22	=22
0BB-	0d	1f	2.b-\
.	.	.	4b-\
.	.	1d	2b-\
.	.	.	2b-\
=23	=23	=23	=23
0r	0e-i	1c	2cc\
.	.	.	2cc\
.	.	1c	2cc\
.	.	.	2cc\
=24	=24	=24	=24
1.BB-	1d	1B-	2dd\
.	.	.	2dd\
.	[1f	1r	2dd\
2BB-/	.	.	2dd\
=25	=25	=25	=25
2FF/	1f]	2r	1cc
2FF/	.	2f\	.
2.BB-/	[1B-	2f\	[1dd
.	.	2d\	.
4C/	.	.	.
=26	=26	=26	=26
2D\	1B-]	2.f\	1dd]
2BB-/	.	.	.
.	.	4e\	.
1F	1A	1c	1r
=27	=27	=27	=27
0BB-	0B-	1B-	2r
.	.	.	2dd\
.	.	1r	2dd\
.	.	.	2dd\
=28	=28	=28	=28
0r	1f	1F	2.cc\
.	.	.	4b-\
.	1e	1c	2a/
.	.	.	2g/
=29	=29	=29	=29
2.F\	1f	2F/	1f
.	.	2F/	.
4F\	.	.	.
2F\	[1d	2F/	1r
2D\	.	2F/	.
=30	=30	=30	=30
2BB-/	1d]	2F/	2r
2D\	.	2F/	2b-\
1C	1e	2G/	2cc\
.	.	2A/	2cc\
=31	=31	=31	=31
0BB-	1f	0B-	2dd\
.	.	.	2.ff\
.	1B-	.	.
.	.	.	4ee\
.	.	.	4dd\
.	.	.	4cc\
=32	=32	=32	=32
1r	0c	1r	4ee\
.	.	.	4dd\
.	.	.	4cc\
.	.	.	4b-\
1FF	.	1c	2.a/
.	.	.	4g/
=33	=33	=33	=33
2.BB-/	1.B-	1.d	0b-
4C/	.	.	.
4D\	.	.	.
4E\	.	.	.
2F\	2A/	2c\	.
=34	=34	=34	=34
1G	1G	2B-\	1r
.	.	4A/	.
.	.	4G/	.
1D	1F#i	1A	1a
=35	=35	=35	=35
0GG	0G	0G	2b-\
.	.	.	2g/
.	.	.	2b-\
.	.	.	2cc\
=36	=36	=36	=36
1r	0D	0r	2.dd\
.	.	.	4cc\
2r	.	.	1a
2F\	.	.	.
=37	=37	=37	=37
2G\	0E	2r	1g
2A\	.	1g	.
2B-\	.	.	1r
2c\	.	2g\	.
=38	=38	=38	=38
0A	0F	2.f\	1r
.	.	4e\	.
.	.	2d\	1a
.	.	2c\	.
=39	=39	=39	=39
1r	0G	2B-\	2b-\
.	.	2G/	2.dd\
1G	.	2B-\	.
.	.	.	4cc\
.	.	2c\	[2b-\
=40	=40	=40	=40
1G	1B-	1d	2b-\]
.	.	.	4a/
.	.	.	4g/
1D	1A	2r	2f/
.	.	2d\	2a/
=41	=41	=41	=41
1A	0c	2e\	2.a/
.	.	2e\	.
.	.	.	4g/
1A	.	2c\	2f/
.	.	2c\	2e/
=42	=42	=42	=42
2D\	1d	1f	2d/
2D\	.	.	2f/
2G\	2B-\	2r	2g/
2F\	2c\	2f\	2a/
=43	=43	=43	=43
2BB-/	2.d\	2f\	2b-\
1F	.	2f\	2a/
.	4c\	.	.
.	2A/	2f\	2cc\
2G\	[2G/	2d\	[2b-\
=44	=44	=44	=44
2E\	2G/]	2e\	4b-\]
.	.	.	4a/
2G\	2B-\	2.d\	2.g/
1D	1A	.	.
.	.	4c\	4f#i/
.	.	2A/	4f#i/
.	.	.	4e/
=45	=45	=45	=45
[0GGl	[0Gl	4B-\	[0gl
.	.	4A/	.
.	.	4G/	.
.	.	4F/	.
.	.	2E-i/	.
.	.	2D/	.
=46	=46	=46	=46
0GG]	0G]	0Dl	0g]
==	==	==	==
*-	*-	*-	*-
!!!RDF**kern: l=long note in original notation
!!!RDF**kern: i=editorial accidental
!!!RDF**kern: V=start of tuplet marker
!!!RDF**kern: Z=end of tuplet marker
!!!ENC:	Jesse Rodin; Victoria Chang 2012/02/27
!!!END:	2012/02/27/
!!!EED:	Jesse Rodin
!!!EEV:	2012/03/22/
!!attribution-level@Jos: 3 (tricky)
!!!ONB:	Translated from MusicXML and edited on 2012/03/22/ by Craig Sapp
!!muse2ps: T^@{OPR}^u^@{ONM}{. }@{OTL}^C^@{COA}?\n@{SCT}^i2I150v85,85,85,150Q16
